src/svg/th-list-outline.svg

<svg version="1.2" baseProfile="tiny" xmlns="http://www.w3.org/2000/svg" width="24" height="24" viewBox="0 0 24 24"><path d="M19 18c.55 0 1 .45 1 1s-.45 1-1 1h-7c-.55 0-1-.45-1-1s.45-1 1-1h7m0-2h-7c-1.654 0-3 1.346-3 3s1.346 3 3 3h7c1.654 0 3-1.346 3-3s-1.346-3-3-3zM19 11c.55 0 1 .45 1 1s-.45 1-1 1h-7c-.55 0-1-.45-1-1s.45-1 1-1h7m0-2h-7c-1.654 0-3 1.346-3 3s1.346 3 3 3h7c1.654 0 3-1.346 3-3s-1.346-3-3-3zM19 4c.55 0 1 .45 1 1s-.45 1-1 1h-7c-.55 0-1-.45-1-1s.45-1 1-1h7m0-2h-7c-1.654 0-3 1.346-3 3s1.346 3 3 3h7c1.654 0 3-1.346 3-3s-1.346-3-3-3zM6 16h-2c-1.104 0-2 .896-2 2v2c0 1.104.896 2 2 2h2c1.104 0 2-.896 2-2v-2c0-1.104-.896-2-2-2zm0 4h-2v-2h2v2zM6 9h-2c-1.104 0-2 .896-2 2v2c0 1.104.896 2 2 2h2c1.104 0 2-.896 2-2v-2c0-1.104-.896-2-2-2zm0 4h-2v-2h2v2zM6 2h-2c-1.104 0-2 .896-2 2v2c0 1.104.896 2 2 2h2c1.104 0 2-.896 2-2v-2c0-1.104-.896-2-2-2zm0 4h-2v-2h2v2z"/></svg>

<?xml version="1.0" encoding="iso-8859-1"?>
<!-- Generator: Adobe Illustrator 16.2.1, SVG Export Plug-In . SVG Version: 6.00 Build 0)  -->
<svg version="1.2" baseProfile="tiny" id="Layer_1" xmlns="http://www.w3.org/2000/svg" xmlns:xlink="http://www.w3.org/1999/xlink"
	 x="0px" y="0px" width="24px" height="24px" viewBox="0 0 24 24" xml:space="preserve">
<g>
	<g>
		<path d="M19,18c0.55,0,1,0.45,1,1s-0.45,1-1,1h-7c-0.55,0-1-0.45-1-1s0.45-1,1-1H19 M19,16h-7c-1.654,0-3,1.346-3,3s1.346,3,3,3h7
			c1.654,0,3-1.346,3-3S20.654,16,19,16z"/>
	</g>
</g>
<g>
	<g>
		<path d="M19,11c0.55,0,1,0.45,1,1s-0.45,1-1,1h-7c-0.55,0-1-0.45-1-1s0.45-1,1-1H19 M19,9h-7c-1.654,0-3,1.346-3,3s1.346,3,3,3h7
			c1.654,0,3-1.346,3-3S20.654,9,19,9z"/>
	</g>
</g>
<g>
	<g>
		<path d="M19,4c0.55,0,1,0.45,1,1s-0.45,1-1,1h-7c-0.55,0-1-0.45-1-1s0.45-1,1-1H19 M19,2h-7c-1.654,0-3,1.346-3,3s1.346,3,3,3h7
			c1.654,0,3-1.346,3-3S20.654,2,19,2z"/>
	</g>
</g>
<path d="M6,16H4c-1.104,0-2,0.896-2,2v2c0,1.104,0.896,2,2,2h2c1.104,0,2-0.896,2-2v-2C8,16.896,7.104,16,6,16z M6,20H4v-2h2V20z"/>
<path d="M6,9H4c-1.104,0-2,0.896-2,2v2c0,1.104,0.896,2,2,2h2c1.104,0,2-0.896,2-2v-2C8,9.896,7.104,9,6,9z M6,13H4v-2h2V13z"/>
<path d="M6,2H4C2.896,2,2,2.896,2,4v2c0,1.104,0.896,2,2,2h2c1.104,0,2-0.896,2-2V4C8,2.896,7.104,2,6,2z M6,6H4V4h2V6z"/>
</svg>
